packages/ffe-icons/icons/open/300/sm/view_comfy_alt.svg

<svg xmlns="http://www.w3.org/2000/svg" height="20" viewBox="0 -960 960 960" width="20"><path d="M331.144-576H168.506q-22.044 0-37.274-15.406-15.231-15.406-15.231-37.45v-162.638q0-22.044 15.407-37.274 15.406-15.231 37.449-15.231h162.639q22.043 0 37.274 15.407Q384-813.186 384-791.143v162.639q0 22.043-15.406 37.274Q353.188-576 331.144-576ZM168-627.999h164.001V-792H168v164.001Zm163.144 511.998H168.506q-22.044 0-37.274-15.407-15.231-15.406-15.231-37.449v-162.639q0-22.043 15.407-37.274Q146.814-384 168.857-384h162.639q22.043 0 37.274 15.406Q384-353.188 384-331.144v162.638q0 22.044-15.406 37.274-15.406 15.231-37.45 15.231ZM168-168h164.001v-164.001H168V-168Zm623.143-408H628.504q-22.043 0-37.274-15.406Q576-606.812 576-628.856v-162.638q0-22.044 15.406-37.274 15.406-15.231 37.45-15.231h162.638q22.044 0 37.274 15.407 15.231 15.406 15.231 37.449v162.639q0 22.043-15.407 37.274Q813.186-576 791.143-576Zm-163.144-51.999H792V-792H627.999v164.001Zm163.144 511.998H628.504q-22.043 0-37.274-15.407Q576-146.814 576-168.857v-162.639q0-22.043 15.406-37.274Q606.812-384 628.856-384h162.638q22.044 0 37.274 15.406 15.231 15.406 15.231 37.45v162.638q0 22.044-15.407 37.274-15.406 15.231-37.449 15.231ZM627.999-168H792v-164.001H627.999V-168ZM332.001-627.999Zm0 295.998Zm295.998-295.998Zm0 295.998Z"/></svg>

<svg xmlns="http://www.w3.org/2000/svg" height="20" viewBox="0 -960 960 960" width="20"><path d="M331.14-576H168.51q-22.05 0-37.28-15.41Q116-606.81 116-628.86v-162.63q0-22.05 15.41-37.28Q146.81-844 168.86-844H331.5q22.04 0 37.27 15.41Q384-813.19 384-791.14v162.64q0 22.04-15.41 37.27Q353.19-576 331.14-576ZM168-628h164v-164H168v164Zm163.14 512H168.51q-22.05 0-37.28-15.41Q116-146.81 116-168.86V-331.5q0-22.04 15.41-37.27Q146.81-384 168.86-384H331.5q22.04 0 37.27 15.41Q384-353.19 384-331.14v162.63q0 22.05-15.41 37.28Q353.19-116 331.14-116ZM168-168h164v-164H168v164Zm623.14-408H628.5q-22.04 0-37.27-15.41Q576-606.81 576-628.86v-162.63q0-22.05 15.41-37.28Q606.81-844 628.86-844h162.63q22.05 0 37.28 15.41Q844-813.19 844-791.14v162.64q0 22.04-15.41 37.27Q813.19-576 791.14-576ZM628-628h164v-164H628v164Zm163.14 512H628.5q-22.04 0-37.27-15.41Q576-146.81 576-168.86V-331.5q0-22.04 15.41-37.27Q606.81-384 628.86-384h162.63q22.05 0 37.28 15.41Q844-353.19 844-331.14v162.63q0 22.05-15.41 37.28Q813.19-116 791.14-116ZM628-168h164v-164H628v164ZM332-628Zm0 296Zm296-296Zm0 296Z"/></svg>
